!!!CDT:
!!!PTL: L'ottavo libro de'madrigali a cinque voci
!!!PPP: Venice
!!!PPR: Ricciardo Amadino
!!!PDT: 1603
!!!PUB-format:
!!!RISM: I 10
!!!AGN: Madrigal
!!!SCT: Tsg06104a
!!!SCA: Tsg06104a
!!!original-voices: 5
!!!extant-voices: 2
!!!complete: N
!!!final: (A)(C)A
!!!COM: Il Verso, Antonio
!!!OTL: Poi rimirando il campo ella dicea
**kern	**text	**kern	**text
*part2	*part2	*part1	*part1
*staff2	*staff2	*staff1	*staff1
*I"Quinto	*	*I"Canto	*
*I'V	*	*I'C	*
*oclefC3	*	*oclefG2	*
*clefGv2	*	*clefG2	*
*k[]	*	*k[]	*
*C:	*	*C:	*
*omet(C|)	*	*omet(C|)	*
*M2/1	*	*M2/1	*
=1	=1	=1	=1
!!LO:TX:a:t=Seconda stanza.
0r	.	0r	.
=2	=2	=2	=2
0r	.	0r	.
=3	=3	=3	=3
1c	Poi	1r	.
2A	ri-	2r	.
2B	-mi-	2gg	"O
=4	=4	=4	=4
2.c	-ran-	2.ee	bel-
4c	-do il	4ee	-le a
4e	cam-	2ee	gli oc-
4e	-po el-	.	.
4c	-la	2ff	-chi
4d	di-	.	.
=5	=5	=5	=5
8fL	-ce-	2dd	mie-
8e	.	.	.
8f	.	.	.
8gJ	.	.	.
2a	.	2cc	-i,
2d	-a:	1r	.
4r	.	.	.
4f	"O	.	.
=6	=6	=6	=6
4.e	bel-	2r	.
8e	-le a	.	.
4e	gli oc-	4r	.
4c	-chi	4ff	O
2d	miei,	4.dd	bel-
.	.	8dd	-le a
4r	.	4ff	gli oc-
4f	O	4ff	-chi
=7	=7	=7	=7
4.g	bel-	2ee	miei,
8g	-le a	.	.
4a	gli oc-	4r	.
4e	-chi	4cc	O
2f	miei	4.a	bel-
.	.	8a	-le a
2r	.	4b	gli oc-
.	.	4b	-chi
=8	=8	=8	=8
4r	.	2cc	miei
4c	ten-	.	.
4d	-de	2ff	ten-
4A	La-	.	.
1c	-ti-	4ee	-de
.	.	4cc	La-
.	.	2cc	-ti-
=9	=9	=9	=9
1c	-ne!	1cc	-ne!
2r	.	2r	.
[2e	Au-	[2cc	Au-
=10	=10	=10	=10
4e]	.	4cc]	.
4e	-ra	4cc	-ra
2g	spi-	2ee	spi-
4f#X	-ra	4dd	-ra
4g	da	4dd	da
[2g	voi	[2ee	voi
=11	=11	=11	=11
4g]	.	4ee]	.
4g	che	4ee	che
4fnXi	mi	4dd	mi
4e	ri-	4cc#X	ri-
1d	-cre-	1dd	-cre-
=12	=12	=12	=12
2e	-a,	1cc#X	-a,
2a	E	.	.
2.g	mi	2r	.
.	.	4r	.
4g	con-	4ccnXi	E
=13	=13	=13	=13
4.a	-for-	4.cc	mi
8a	-ta	8cc	con-
4a	pur,	4cc	-for-
4g	che	4b	-ta
2e	m'a-	4a	pur,
.	.	4ee	che
2a	-vi-	[2cc	m'a-
=14	=14	=14	=14
2g	-ci-	4cc]	.
.	.	4cc	-vi-
2g	-ne,	2cc	-ci-
2r	.	1cc	-ne,
4r	.	.	.
4c	E	.	.
=15	=15	=15	=15
4B	mi	0r	.
4c	con-	.	.
4d	-for-	.	.
4G	-ta	.	.
4.c	pur,	.	.
8c	che	.	.
4c	m'a-	.	.
4d	-vi-	.	.
=16	=16	=16	=16
2c	-ci-	1r	.
2F	-ne,	.	.
2r	.	2r	.
4r	.	4r	.
4f	E	4a	E
=17	=17	=17	=17
4.e	mi	4b	mi
.	.	4a	con-
8e	con-	.	.
4f	-for-	4cc	-for-
4g	-ta	4ee	-ta
4.a	pur,	4a	pur,
.	.	4.cc	che
8a	che	.	.
4g	m'a-	.	.
.	.	8dd	m'a-
4g	-vi-	4ee	-vi-
=18	=18	=18	=18
2f	-ci-	1ff	-ci-
4e	.	.	.
4d	.	.	.
2g	.	1ee	-ne:
2g	-ne:	.	.
!!LO:TX:a:cj:t=[whole] &rarr; [whole-dot]
=19	=19	=19	=19
*M3/1	*	*M3/1	*
1c	Co-	1ff	Co-
1c	-sì a	1ff	-sì a
1c	mia	1ff	mia
=20	=20	=20	=20
1c	vi-	0ee	vi-
1A	-ta	.	.
1r	.	1ee	-ta
=21	=21	=21	=21
1.c	com-	0.r	.
2c	-bat-	.	.
2c	-tu-	.	.
2c	-ta e	.	.
=22	=22	=22	=22
1f	re-	1.cc	com-
1f	-a,	.	.
.	.	2cc	-bat-
1r	.	2cc	-tu-
.	.	2cc	-ta e
=23	=23	=23	=23
1g	Co-	0dd	re-
1g	-sì a	.	.
1g	mia	1dd	-a,
=24	=24	=24	=24
2c	vi-	1ee	Co-
2d	-ta	.	.
2e	com-	1ee	-sì a
2c	-bat-	.	.
2g	-tu-	1ee	mia
2e	-ta e	.	.
=25	=25	=25	=25
1c	re-	0ff	vi-
1c	-a,	.	.
1A	mia	1ff	-ta
=26	=26	=26	=26
2c	vi-	2gg	com-
2A	-ta	2ff	-bat-
2c	com-	2ee	-tu-
2c	-bat-	2ee	-ta e
2d	-tu-	1dd	re-
2B	-ta e	.	.
!!LO:TX:a:cj:t=[whole-dot] &rarr; [whole]
=27	=27	=27	=27
*M2/1	*	*M2/1	*
2A	re-	1ff	-a
2A	-a	.	.
2r	.	2r	.
[2f	Qual-	[2cc	Qual-
=28	=28	=28	=28
4f]	.	4cc]	.
4f	-che o-	4cc	-che o-
1.f	-ne-	2cc	-ne-
.	.	1ff	-sto
=29	=29	=29	=29
2g	-sto	1ee-X	ri-
2G	ri-	.	.
2.d	-po-	[1dd	-po-
4c	.	.	.
=30	=30	=30	=30
1B-X	.	1dd]	.
1A	-so	1cc	-so
=31	=31	=31	=31
4r	.	4r	.
4f	il	4cc	il
2.e	ciel	2.cc	ciel
2f	de-	4cc	de-
.	.	2cc	-sti-
[4e	-sti-	.	.
=32	=32	=32	=32
4e]	.	4cc	-ne,
4e	-ne,	4ee	il
4r	.	2dd	ciel
4G	il	.	.
2.d	ciel,	2dd	de-
.	.	2dd	-sti-
4A	il	.	.
=33	=33	=33	=33
4e	ciel	4b	.
4c	de-	4.a	.
2B	-sti-	.	.
.	.	16g#XL	.
.	.	16f#XJ	.
.	.	4g#X	.
2A	-ne,	[1a	-ne,
2c#X	Co-	.	.
=34	=34	=34	=34
2d	-me in	2a]	.
4d	voi	2r	.
2g	so-	.	.
.	.	1r	.
4f	-lo il	.	.
4e	cer-	.	.
4e	-co, e	.	.
=35	=35	=35	=35
2d	so-	1r	.
4c#X	-lo	.	.
4.d	par-	.	.
.	.	2r	.
16c#XL	.	.	.
16BJ	.	.	.
4c#X	.	.	.
2d	-mi,	4r	.
.	.	4dd	Co-
=36	=36	=36	=36
1r	.	4cc	-me in
.	.	4a	voi
.	.	4.dd	so-
.	.	8dd	-lo il
2r	.	4ee	cer-
.	.	4ff	-co, e
4r	.	[2gg	so-
4d	e	.	.
=37	=37	=37	=37
4e	so-	4gg]	.
4g	-lo	4ee	-lo
4.f	par-	2ff	par-
8g	.	.	.
2a	.	2ee	-mi
2g	-mi	2ee	Che
=38	=38	=38	=38
1r	.	4ee	tro-
.	.	4ff	-var
.	.	4ee	pos-
.	.	4dd	-sa
2r	.	2dd	pa-
4r	.	2cc#X	-ce
4A	in	.	.
=39	=39	=39	=39
4c	me-	4r	.
4A	-zo a	4ee	in
8FL	l'ar-	4ff	me-
8G	.	.	.
8A	.	4ff	-zo a
8BJ	.	.	.
4.c	.	4.ee	l'ar-
8dL	.	16ddL	.
.	.	16ccnXiJ	.
8e	.	4b	.
8f	.	.	.
8g	.	4cc	-mi,
8eJ	.	.	.
=40	=40	=40	=40
2f	.	4r	.
.	.	4cc	in
2e	-mi,	2ee	me-
4r	.	4dd	-zo,
4d	in	4dd	in
4d	me-	4gg	me-
4e	-zo a	4gg	-zo a
=41	=41	=41	=41
4d	l'ar-	2gg	l'ar-
4G	-mi,	.	.
4r	.	2ee	-mi,
4e	a	.	.
2e	l'ar-	4r	.
.	.	4cc	in
2e	-mi,	8eeL	me-
.	.	8dd	.
.	.	8cc	.
.	.	8aJ	.
=42	=42	=42	=42
4r	.	4b	.
4B	in	4dd	-zo a
4c	me-	8eeL	l'ar-
.	.	8ffJ	.
4G	-zo, in	2gg	.
4G	me-	.	.
4g	-zo a	8ffL	.
.	.	8eeJ	.
2g	l'ar-	2dd	.
=43	=43	=43	=43
0gl	-mi.	0eel	-mi.
==	==	==	==
*-	*-	*-	*-
!!!system-decoration: [*]
!!!RDF**kern: i = editorial accidental
!!!RDF**kern: l = terminal long
!!!ENC: Emiliano Ricciardi
!!!END: 2019
!!!EED: Ricciardi, Emiliano
!!!EEV: 2019/05/05
!!!YEC: Copyright 2018 Emiliano Ricciardi, All Rights Reserved
!!!ONB: Translated from MusicXML on 2019/05/05
!!@@BEGIN:	VERSEDATA
!!@CATALOGNUM:	Tsg06104
!!@LAST_MODIFIED: 2020/07/12
!!@TITLE:		Poi rimirando il campo ella dicea
!!@CANTO:		VI
!!@OTTAVA:	104
!!@MANUSRC:	G-Al, G-Au, G-Br<sub>1</sub>, G-Br<sub>2</sub>, G-Cv, G-Es<sub>1</sub>, G-Es<sub>2</sub>, G-Es<sub>3</sub>, G-F, G-Fr, G-Fr<sub>1</sub>, G-Fr<sub>2</sub>, G-Mc, G-Mc<sub>1</sub>, G-Mg, G-Mr, G-Mt, G-N
!!@PRINTSRC:	G-1580CM, G-1581B, G-1581CV, G-1581R, G-1581MR, G-1581P, G-1581V, G-1581V<sub>bis</sub>, G-1582C, G-1582M, G-1582MC, G-1582P, G-1582SC, G-1582SC<sub>bis</sub>, G-1583S, G-1584O, G-1584S, G-1585C, G-1585S, G-1588S, G-1589S, G-1590B, G-1590S, G-1592S, G-1593S, G-1594C, G-1595C, G-1597C, G-1598C, G-1599C, G-1600C, G-1600S, G-1601C, G-1601R, G-1602C, G-1604C, G-1604Cl, G-1604F, G-1604P, G-1606B, G-1606B<sub>bis</sub>, G-1606L, G-1607ZR, G-1608DP, G-1609GC, G-1610M, G-1611S, G-1611V, G-1612P, G-1613M, G-1613P, G-1613V, G-1615P, G-1616M, G-1617P, G-1619B, G-1619V, G-1620M, G-1620S, G-1621R, G-1624I, G-1624MT, G-1625C, G-1625S, G-1625SS, G-1626C, G-1626Co, G-1627M, G-1628T, G-1628Tu, G-1630L, G-1630T, G-1632FT, G-1639CF, G-1642M, G-1643I, G-1644P, G-1644S
!!@@BEGIN:	VERSES
!!@ABOUTIT:
!!@ABOUTEN:
!!@EDITOR:	Angelo Solerti
!!@EDITION_TITLE: Gerusalemme liberata. Poema eroico di Torquato Tasso. Edizione critica sui manoscritti e le prime stampe.
!!@EDITION_LOC:	Florence
!!@EDITION_PUB:	G. Barbera
!!@EDITION_DATE:  1895
!!@EDITION_VOL:	2
!!@EDITION_PAGE:  247
!!@TRANSLATOR:	Emiliano Ricciardi and Amyrose McCue Gill
!!@VERSE:
!!	Poi rimirando il campo ella dicea:
!!	"O belle agli occhi miei tende latine!
!!	Aura spira da voi che mi ricrea,
!!	E mi conforta, pur che m’avvicine:
!!	Così a mia vita combattuta e rea
!!	Qualche onesto riposo il ciel destine,
!!	Come in voi solo il cerco, e solo parmi
!!	Che trovar pace io possa in mezzo a l’armi.
!!@MVERSE_DATE: 20230824
!!@MVERSE:
!!	Poi ri|mi|ran||do_il cam||po_el||la di|ce||a:		=a
!!	"O bel||le_a||gli_oc||chi miei ten||de la|ti||ne!	=b
!!	Au||ra spi||ra da voi che mi ri|cre||a,			=a
!!	E mi con|for||ta, pur che m’av|vi|ci||ne:		=b
!!	Co|sì||_a mia vi||ta com|bat|tu||ta_e re||a		=a (+?) lines are connected
!!	Qual||che_o|ne||sto ri|po||so_il ciel de|sti||ne,	=b
!!	Co||me_in voi so||lo_il cer||co,_e so||lo par||mi	=c+
!!	Che tro|var|| pa||ce_io pos||sa_in mez||zo_a l’ar||mi.	=c
!!@TVERSE:
!!	Then gazing upon the field she said:
!!	"O beautiful to my eyes the Latin tents!
!!	A breeze wafts from you that uplifts me,
!!	And comforts me, the closer that I come:
!!	Thus for my life of struggle and guilt
!!	Heaven destines some true rest,
!!	As I seek it in you alone, and it seems to me
!!	That I may only be able to find peace in the midst of arms.
!!@@END:		VERSES
!!@OTHER_CRIT_ED:  Torquato Tasso, <i>Gerusalemme liberata</i>, ed. Lanfranco Caretti, 2 vols. (Bari: Laterza, 1967).
!!@ATTRIBUTION_ABOUT:
!!@DATING:	mid-1560s through 1570s
!!@DEDICATEE:	Duke Alfonso II d'Este
!!@COMMENTARY:
!!@@END:		VERSEDATA
!!@@BEGIN: SETTING
!!@CATALOGNUM:	Tsg06104a
!!@CANTO:		VI
!!@OTTAVA:	104
!!@TITLE:	Poi rimirando il campo ella dicea
!!@COMPOSER:	Il Verso, Antonio
!!@PARTS:		2 of 3
!!@PRINCEPSTITLE:	L'ottavo libro de'madrigali a cinque voci
!!@PRINCEPSLOC:	Venice
!!@NORMLOC:	Venice
!!@NORMPUB:	Ricciardo Amadino
!!@NORMPUBSHORT:	Amadino
!!@PRINCEPSPUB:	Ricciardo Amadino
!!@PRINCEPSYEAR:	1603
!!@PRINCEPSRISM:	I 10
!!@OVOICES:	5
!!@EXTANTVOICES:	2
!!@OMENSURATION:	Cut-C; Cut-circle 3/2; Cut-C
!!@OCLEFS:	G2,C3
!!@OTIME:		
!!@OKEYSIG:	-
!!@FINAL:	(A)(C)A
!!@TIMPEDITOR:	Ricciardi, Emiliano
!!@REPRINTS:	
!!@@END: SETTING
